build/svg/cmd/sc_backcolor.svg

<?xml version="1.0" encoding="UTF-8" standalone="no"?>
<svg
   xmlns:dc="http://purl.org/dc/elements/1.1/"
   xmlns:cc="http://creativecommons.org/ns#"
   xmlns:rdf="http://www.w3.org/1999/02/22-rdf-syntax-ns#"
   xmlns:svg="http://www.w3.org/2000/svg"
   xmlns="http://www.w3.org/2000/svg"
   xmlns:sodipodi="http://sodipodi.sourceforge.net/DTD/sodipodi-0.dtd"
   xmlns:inkscape="http://www.inkscape.org/namespaces/inkscape"
   viewBox="0 0 16 16"
   version="1.1"
   id="svg4"
   sodipodi:docname="sc_backcolor.svg"
   inkscape:version="0.92.4 (5da689c313, 2019-01-14)"
   inkscape:export-filename="/home/jupiter007/Libreoffice yaru theme fullcolor/build/cmd/sc_backcolor.png"
   inkscape:export-xdpi="95"
   inkscape:export-ydpi="95"><metadata
   id="metadata10">
  <rdf:RDF>
    <cc:Work
       rdf:about="">
      <dc:format>image/svg+xml</dc:format>
      <dc:type
         rdf:resource="http://purl.org/dc/dcmitype/StillImage" />
    </cc:Work>
  </rdf:RDF>
</metadata>
<defs
   id="defs8" />
<sodipodi:namedview
   pagecolor="#ffffff"
   bordercolor="#666666"
   borderopacity="1"
   objecttolerance="10"
   gridtolerance="10"
   guidetolerance="10"
   inkscape:pageopacity="0"
   inkscape:pageshadow="2"
   inkscape:window-width="1920"
   inkscape:window-height="1011"
   id="namedview6"
   showgrid="false"
   inkscape:zoom="29.5"
   inkscape:cx="7.9008413"
   inkscape:cy="6.9065155"
   inkscape:window-x="0"
   inkscape:window-y="32"
   inkscape:window-maximized="1"
   inkscape:current-layer="svg4" />
/&gt;<rect
   style="opacity:1;vector-effect:none;fill:#2daaaa;fill-opacity:1;stroke:none;stroke-width:2;stroke-linecap:round;stroke-linejoin:round;stroke-miterlimit:4;stroke-dasharray:none;stroke-dashoffset:0;stroke-opacity:1"
   id="rect3830-5"
   width="4"
   height="4"
   x="-1.1920929e-07"
   y="12" />
<rect
   style="opacity:1;vector-effect:none;fill:#46a926;fill-opacity:1;stroke:none;stroke-width:2;stroke-linecap:round;stroke-linejoin:round;stroke-miterlimit:4;stroke-dasharray:none;stroke-dashoffset:0;stroke-opacity:1"
   id="rect3830-0-9"
   width="4"
   height="4"
   x="3.9999993"
   y="12" />
<rect
   style="opacity:1;vector-effect:none;fill:#fdc92b;fill-opacity:1;stroke:none;stroke-width:2;stroke-linecap:round;stroke-linejoin:round;stroke-miterlimit:4;stroke-dasharray:none;stroke-dashoffset:0;stroke-opacity:1"
   id="rect3830-2-2"
   width="4"
   height="4"
   x="7.999999"
   y="12" />
<rect
   style="opacity:1;vector-effect:none;fill:#f34f17;fill-opacity:1;stroke:none;stroke-width:2;stroke-linecap:round;stroke-linejoin:round;stroke-miterlimit:4;stroke-dasharray:none;stroke-dashoffset:0;stroke-opacity:1"
   id="rect3830-3-2"
   width="4"
   height="4"
   x="12"
   y="12" />
<rect
   style="opacity:1;vector-effect:none;fill:#31c6b7;fill-opacity:1;stroke:none;stroke-width:2;stroke-linecap:round;stroke-linejoin:round;stroke-miterlimit:4;stroke-dasharray:none;stroke-dashoffset:0;stroke-opacity:1"
   id="rect3830-9"
   width="4"
   height="4"
   x="-1.1920929e-07"
   y="8" />
<rect
   style="opacity:1;vector-effect:none;fill:#76c22b;fill-opacity:1;stroke:none;stroke-width:2;stroke-linecap:round;stroke-linejoin:round;stroke-miterlimit:4;stroke-dasharray:none;stroke-dashoffset:0;stroke-opacity:1"
   id="rect3830-0-7"
   width="4"
   height="4"
   x="3.9999993"
   y="8" />
<rect
   style="opacity:1;vector-effect:none;fill:#ffda64;fill-opacity:1;stroke:none;stroke-width:2;stroke-linecap:round;stroke-linejoin:round;stroke-miterlimit:4;stroke-dasharray:none;stroke-dashoffset:0;stroke-opacity:1"
   id="rect3830-2-3"
   width="4"
   height="4"
   x="7.999999"
   y="8" />
<rect
   style="opacity:1;vector-effect:none;fill:#fb7c38;fill-opacity:1;stroke:none;stroke-width:2;stroke-linecap:round;stroke-linejoin:round;stroke-miterlimit:4;stroke-dasharray:none;stroke-dashoffset:0;stroke-opacity:1"
   id="rect3830-3-6"
   width="4"
   height="4"
   x="12"
   y="8" />
<rect
   style="opacity:1;vector-effect:none;fill:#5bdbc1;fill-opacity:1;stroke:none;stroke-width:2;stroke-linecap:round;stroke-linejoin:round;stroke-miterlimit:4;stroke-dasharray:none;stroke-dashoffset:0;stroke-opacity:1"
   id="rect3830-29"
   width="4"
   height="4"
   x="-1.1920929e-07"
   y="3.9999998" />
<rect
   style="opacity:1;vector-effect:none;fill:#a6d74f;fill-opacity:1;stroke:none;stroke-width:2;stroke-linecap:round;stroke-linejoin:round;stroke-miterlimit:4;stroke-dasharray:none;stroke-dashoffset:0;stroke-opacity:1"
   id="rect3830-0-3"
   width="4"
   height="4"
   x="3.9999993"
   y="3.9999998" />
<rect
   style="opacity:1;vector-effect:none;fill:#fee581;fill-opacity:1;stroke:none;stroke-width:2;stroke-linecap:round;stroke-linejoin:round;stroke-miterlimit:4;stroke-dasharray:none;stroke-dashoffset:0;stroke-opacity:1"
   id="rect3830-2-1"
   width="4"
   height="4"
   x="7.999999"
   y="3.9999998" />
<rect
   style="opacity:1;vector-effect:none;fill:#fda463;fill-opacity:1;stroke:none;stroke-width:2;stroke-linecap:round;stroke-linejoin:round;stroke-miterlimit:4;stroke-dasharray:none;stroke-dashoffset:0;stroke-opacity:1"
   id="rect3830-3-9"
   width="4"
   height="4"
   x="12"
   y="3.9999998" />
<rect
   style="opacity:1;vector-effect:none;fill:#81e9c0;fill-opacity:1;stroke:none;stroke-width:2;stroke-linecap:round;stroke-linejoin:round;stroke-miterlimit:4;stroke-dasharray:none;stroke-dashoffset:0;stroke-opacity:1"
   id="rect3830-78"
   width="4"
   height="4"
   x="-1.1920929e-07"
   y="-2.3841858e-07" />
<rect
   style="opacity:1;vector-effect:none;fill:#cbe667;fill-opacity:1;stroke:none;stroke-width:2;stroke-linecap:round;stroke-linejoin:round;stroke-miterlimit:4;stroke-dasharray:none;stroke-dashoffset:0;stroke-opacity:1"
   id="rect3830-0-4"
   width="4"
   height="4"
   x="3.9999993"
   y="-2.3841858e-07" />
<rect
   style="opacity:1;vector-effect:none;fill:#fff4c9;fill-opacity:1;stroke:none;stroke-width:2;stroke-linecap:round;stroke-linejoin:round;stroke-miterlimit:4;stroke-dasharray:none;stroke-dashoffset:0;stroke-opacity:1"
   id="rect3830-2-5"
   width="4"
   height="4"
   x="7.999999"
   y="-2.3841858e-07" />
<rect
   style="opacity:1;vector-effect:none;fill:#fec589;fill-opacity:1;stroke:none;stroke-width:2;stroke-linecap:round;stroke-linejoin:round;stroke-miterlimit:4;stroke-dasharray:none;stroke-dashoffset:0;stroke-opacity:1"
   id="rect3830-3-0"
   width="4"
   height="4"
   x="12"
   y="-2.3841858e-07" />
<path
   d="m9.1425781 2-7.1425781 7.1367188v2.8554692c1.07486.0189 2.8574219 0 2.8574219 0l7.1425781-7.1367192zm-.7148437 2.140625 1.4296875 1.4277344-2.8574219 2.8554687-1.4277344-1.4277343zm3.5722656 1.859375c-.38917 1.27687-1.355451 2.3789625-1.775391 3.2578125-.14695.2613-.224609.5501675-.224609.8671875 0 1.03875.892 1.875 2 1.875s2-.83625 2-1.875c0-.31702-.10302-.6058875-.25-.8671875-.41994-.87885-1.36084-1.9809425-1.75-3.2578125zm-7.1425781 1.7089844 1.4277343 1.4277344-.7128906.7128906-1.4296875-1.4257813zm-2.8574219 5.2910156v1h12v-1z"
   fill="#232629"
   id="path2"
   style="fill:#000000" />
</svg>

<svg xmlns="http://www.w3.org/2000/svg" viewBox="0 0 16 16">/&gt;<path fill="#2daaaa" d="M0 12h4v4H0z"/><path fill="#46a926" d="M4 12h4v4H4z"/><path fill="#fdc92b" d="M8 12h4v4H8z"/><path fill="#f34f17" d="M12 12h4v4h-4z"/><path fill="#31c6b7" d="M0 8h4v4H0z"/><path fill="#76c22b" d="M4 8h4v4H4z"/><path fill="#ffda64" d="M8 8h4v4H8z"/><path fill="#fb7c38" d="M12 8h4v4h-4z"/><path fill="#5bdbc1" d="M0 4h4v4H0z"/><path fill="#a6d74f" d="M4 4h4v4H4z"/><path fill="#fee581" d="M8 4h4v4H8z"/><path fill="#fda463" d="M12 4h4v4h-4z"/><path fill="#81e9c0" d="M0 0h4v4H0z"/><path fill="#cbe667" d="M4 0h4v4H4z"/><path fill="#fff4c9" d="M8 0h4v4H8z"/><path fill="#fec589" d="M12 0h4v4h-4z"/><path d="M9.143 2L2 9.137v2.855c1.075.02 2.857 0 2.857 0L12 4.855zm-.715 2.14l1.43 1.428L7 8.424 5.572 6.996zM12 6c-.39 1.277-1.355 2.379-1.775 3.258-.147.261-.225.55-.225.867 0 1.039.892 1.875 2 1.875s2-.836 2-1.875c0-.317-.103-.606-.25-.867C13.33 8.379 12.39 7.277 12 6zM4.857 7.709l1.428 1.428-.713.713-1.43-1.426zM2 13v1h12v-1z"/></svg>
